X: 34793
T: Road To Skye, The
R: jig
M: 6/8
K: Gmajor
|:GFG DB,D|GBd e2 d|gdB BAB|cBc E2 F|
GFG DB,D|GBd e2 d|gdB BAB|cEF G2:|
|:GBd GBd|GBd cBA|GBd efg|fd^c def|
gbg faf|ece ~d2 B|cBc Adc|BGF G2:|

